X:273
T:Sailor's Farewell (reel), The
T:Newtown Bridge 
B:CRE2.146 (SlÃÂÃÂÃÂÃÂ¡n an MhairnÃÂÃÂÃÂÃÂ©alaigh)
F:file ID: cre.2/273sail_f
N:This is actually "Newtown Bridge" composed by Paddy 
O'Brien (Tipp).
L:1/8
M:C
R:reel
Q:180
K:G
zG|DGG2 DGBd|g2zg (3efg dB|A2A2 A2BA|G2AF GFEF|
DGG2 DGBd|g2dg egdB|GABd gedc|(3Bcd AF G2:|
Bc|d2gf gd (3Bcd|g2zf gfed|eaag a2ag|eaag edBc|
dggf gd (3Bcd|g2zf gedB|GA (3Bcd gedc|BdAF G2:|

%%%

